CSETWebApi/CSETWeb_Api/CSETWeb_ApiCore/Diagram/src/main/webapp/img/lib/mscae/Media_Services.svg

<svg xmlns="http://www.w3.org/2000/svg" width="43.301" height="50"><path d="M21.65 0L43.3 12.5v25L21.65 50 0 37.5v-25z" fill="#3e3e3e"/><g fill="#fff"><path d="M21.65 50L43.3 37.5v-25S25.413 26.12 21.65 50" opacity=".2"/><path d="M31.172 14.958a14.23 14.23 0 0 0-20.074 0 14.2 14.2 0 0 0 0 20.084 14.23 14.23 0 0 0 20.074 0 14.21 14.21 0 0 0 0-20.084"/></g><path d="M29.227 16.903a11.47 11.47 0 0 0-16.185 0 11.45 11.45 0 0 0 0 16.192 11.47 11.47 0 0 0 16.185 0c4.47-4.47 4.47-11.715 0-16.192" fill="#59b4d9"/><g fill="#fff"><path d="M27.986 25.015l.043-.03-10.902-7.17v7.2z"/><path d="M27.986 25.015h-10.86v7.198z" opacity=".8"/></g></svg>

<?xml version="1.0" encoding="UTF-8" standalone="no"?>
<svg
   xmlns:dc="http://purl.org/dc/elements/1.1/"
   xmlns:cc="http://creativecommons.org/ns#"
   xmlns:rdf="http://www.w3.org/1999/02/22-rdf-syntax-ns#"
   xmlns:svg="http://www.w3.org/2000/svg"
   xmlns="http://www.w3.org/2000/svg"
   xmlns:sodipodi="http://sodipodi.sourceforge.net/DTD/sodipodi-0.dtd"
   xmlns:inkscape="http://www.inkscape.org/namespaces/inkscape"
   version="1.1"
   id="Layer_1"
   x="0px"
   y="0px"
   width="43.300999"
   height="50"
   viewBox="0 0 43.300999 50"
   enable-background="new 0 0 50 50"
   xml:space="preserve"
   inkscape:version="0.91 r13725"
   sodipodi:docname="Azure Media Services _COLOR.svg"><metadata
     id="metadata19"><rdf:RDF><cc:Work
         rdf:about=""><dc:format>image/svg+xml</dc:format><dc:type
           rdf:resource="http://purl.org/dc/dcmitype/StillImage" /><dc:title></dc:title></cc:Work></rdf:RDF></metadata><defs
     id="defs17" /><sodipodi:namedview
     pagecolor="#ffffff"
     bordercolor="#666666"
     borderopacity="1"
     objecttolerance="10"
     gridtolerance="10"
     guidetolerance="10"
     inkscape:pageopacity="0"
     inkscape:pageshadow="2"
     inkscape:window-width="1920"
     inkscape:window-height="1018"
     id="namedview15"
     showgrid="false"
     fit-margin-top="0"
     fit-margin-left="0"
     fit-margin-right="0"
     fit-margin-bottom="0"
     inkscape:zoom="10.363697"
     inkscape:cx="24.037692"
     inkscape:cy="17.979766"
     inkscape:window-x="-8"
     inkscape:window-y="-8"
     inkscape:window-maximized="1"
     inkscape:current-layer="Layer_1" /><polygon
     points="24.65,0 46.301,12.5 46.301,37.5 24.65,50 3,37.5 3,12.5 "
     id="polygon3"
     style="fill:#3e3e3e"
     transform="translate(-3,0)" /><path
     enable-background="new    "
     d="M 21.651,50 43.3,37.5 43.3,12.5 C 43.3,12.5 25.413,26.12 21.651,50"
     id="path5"
     inkscape:connector-curvature="0"
     style="opacity:0.2;fill:#ffffff" /><path
     d="M 31.172,14.958 C 25.622,9.432 16.654,9.432 11.098,14.958 5.549,20.507 5.549,29.493 11.098,35.042 16.647,40.567 25.622,40.567 31.172,35.042 36.715,29.497 36.715,20.511 31.172,14.958"
     id="path7"
     inkscape:connector-curvature="0"
     style="fill:#ffffff" /><path
     d="M 29.227,16.903 C 24.753,12.447 17.522,12.447 13.042,16.903 8.569,21.377 8.569,28.622 13.042,33.095 17.517,37.551 24.753,37.551 29.227,33.095 33.697,28.626 33.697,21.38 29.227,16.903"
     id="path9"
     inkscape:connector-curvature="0"
     style="fill:#59b4d9" /><polygon
     points="30.986,25.015 31.029,24.986 20.127,17.816 20.127,25.015 "
     id="polygon11"
     style="fill:#ffffff"
     transform="translate(-3,0)" /><polygon
     enable-background="new    "
     points="30.986,25.015 20.127,25.015 20.127,32.213 "
     id="polygon13"
     style="opacity:0.8;fill:#ffffff"
     transform="translate(-3,0)" /></svg>
